X: 22
M:C|
L:1/8
K:Edor
vBA"Segno"|Beed BcdB|A2FD ADFD|E^DEF GFGA|Beef gfed|
u(ef)|gfga bgeg|fefg afdf|gfga bgeg|afdf e2(ef)|
gfga bgeg|fefg afdf|ggbg ffaf|egfa gfed"Segno"||


